X:1575
T:New Castle Hornpipe
A:Wyresdale, Lancashire
B:E and J Winder, 1835-41
L:1/8
M:C|
O:England
Z:Richard Robinson 
%%TUNEURL: http://www.leeds.ac.uk/music/Info/RRTuneBk/gettune/00001251.html
%%ID:00001251
K:D
dc | B2B2 BcAF | G2G2 G2FG | BGBd edcB | AcGB GF\
ED | B2B2 Bdce | d2d2 d2ed | cBAG FGEF | D2D2 D2 ::
AB | c2c2 c2AB | cBAG GFED | GFGA BGBd | ecAG GF\
ED | e2e2 egfg | dBge dBGB | cdec cGAF | d2dd d2 :|
